emblems/scalable/emblem-mounted.svg

<svg viewBox="0 0 24 24" xmlns="http://www.w3.org/2000/svg"><path d="m11.999999 1c-6.075131 0-10.999999 4.92487-10.999999 11s4.924868 11 10.999999 11c6.075133 0 11.000001-4.92487 11.000001-11s-4.924868-11-11.000001-11z" fill="#4d4d4d"/><path d="m12.000002 6-5.7171445 8.57143h11.4342855m-11.7171425 1.71428h11.9999995v1.71429h-11.9999995z" fill="#fff"/></svg>

<?xml version="1.0" encoding="UTF-8" standalone="no"?>
<svg
   xmlns:dc="http://purl.org/dc/elements/1.1/"
   xmlns:cc="http://creativecommons.org/ns#"
   xmlns:rdf="http://www.w3.org/1999/02/22-rdf-syntax-ns#"
   xmlns:svg="http://www.w3.org/2000/svg"
   xmlns="http://www.w3.org/2000/svg"
   xmlns:sodipodi="http://sodipodi.sourceforge.net/DTD/sodipodi-0.dtd"
   xmlns:inkscape="http://www.inkscape.org/namespaces/inkscape"
   viewBox="0 0 24 24"
   id="svg2"
   version="1.1"
   inkscape:version="0.91 r13725"
   sodipodi:docname="emblem-mounted.svg">
  <metadata
     id="metadata12">
    <rdf:RDF>
      <cc:Work
         rdf:about="">
        <dc:format>image/svg+xml</dc:format>
        <dc:type
           rdf:resource="http://purl.org/dc/dcmitype/StillImage" />
      </cc:Work>
    </rdf:RDF>
  </metadata>
  <defs
     id="defs10" />
  <sodipodi:namedview
     pagecolor="#ffffff"
     bordercolor="#666666"
     borderopacity="1"
     objecttolerance="10"
     gridtolerance="10"
     guidetolerance="10"
     inkscape:pageopacity="0"
     inkscape:pageshadow="2"
     inkscape:window-width="2560"
     inkscape:window-height="1381"
     id="namedview8"
     showgrid="false"
     inkscape:zoom="9.8333333"
     inkscape:cx="-10.779661"
     inkscape:cy="12"
     inkscape:window-x="0"
     inkscape:window-y="30"
     inkscape:window-maximized="1"
     inkscape:current-layer="svg2" />
  <path
     style="opacity:1;fill:#4d4d4d;fill-opacity:1;stroke:none"
     d="M 11.999999,1 C 5.924868,1 1,5.92487 1,12 1,18.07513 5.924868,23 11.999999,23 18.075132,23 23,18.07513 23,12 23,5.92487 18.075132,1 11.999999,1 Z"
     id="path4"
     inkscape:connector-curvature="0" />
  <path
     d="m 12.000002,6 -5.7171445,8.57143 11.4342855,0 M 6.0000005,16.28571 18,16.28571 18,18 6.0000005,18 l 0,-1.71429 z"
     style="fill:#ffffff"
     id="path6"
     inkscape:connector-curvature="0" />
</svg>
